icons/round/av/ic_4k_24px.svg

<svg xmlns="http://www.w3.org/2000/svg" height="24" viewBox="0 0 24 24" width="24"><path d="M19 3H5c-1.1 0-2 .9-2 2v14c0 1.1.89 2 2 2h14c1.1 0 2-.9 2-2V5c0-1.1-.89-2-2-2zm-7 9.76c0 .41-.34.75-.75.75H11v.74c0 .41-.34.75-.75.75s-.75-.34-.75-.75v-.75h-2c-.55 0-1-.45-1-1V9.75c0-.41.34-.75.75-.75s.75.34.75.75V12h1.5V9.75c0-.41.34-.75.75-.75s.75.34.75.75V12h.25c.41 0 .75.34.75.75v.01zm5.47 1.14c.22.33.13.77-.2.98-.12.08-.26.12-.39.12-.23 0-.45-.11-.59-.32L14.5 12v2.24c0 .41-.34.75-.75.75-.41.01-.75-.33-.75-.74v-4.5c0-.41.34-.75.75-.75s.75.34.75.75v2.24l1.79-2.68c.22-.33.66-.41.98-.2.33.22.41.66.2.98L16.2 12l1.27 1.9z"/></svg>

<svg xmlns="http://www.w3.org/2000/svg" enable-background="new 0 0 24 24" height="24" viewBox="0 0 24 24" width="24"><g><rect fill="none" height="24" width="24"/></g><g><path d="M19,3H5C3.9,3,3,3.9,3,5v14c0,1.1,0.89,2,2,2h14c1.1,0,2-0.9,2-2V5C21,3.9,20.11,3,19,3z M12,12.76 c0,0.41-0.34,0.75-0.75,0.75H11v0.74c0,0.41-0.34,0.75-0.75,0.75S9.5,14.66,9.5,14.25V13.5h-2c-0.55,0-1-0.45-1-1V9.75 C6.5,9.34,6.84,9,7.25,9S8,9.34,8,9.75V12h1.5V9.75C9.5,9.34,9.84,9,10.25,9S11,9.34,11,9.75V12h0.25c0.41,0,0.75,0.34,0.75,0.75 V12.76z M17.16,13.88C17.5,14.34,17.17,15,16.59,15c-0.22,0-0.42-0.1-0.55-0.27l-1.54-1.98v1.5c0,0.41-0.34,0.75-0.75,0.75 S13,14.66,13,14.25v-4.5C13,9.34,13.34,9,13.75,9s0.75,0.34,0.75,0.75v1.5l1.54-1.98C16.17,9.1,16.38,9,16.59,9 c0.58,0,0.91,0.66,0.56,1.12L15.75,12L17.16,13.88z"/></g></svg>
